dist/img/svg/contacts/mail.svg

<svg width="24" height="18" viewBox="0 0 24 18" fill="none" xmlns="http://www.w3.org/2000/svg">
<path d="M22 0H2.00002C0.896953 0 0 0.896953 0 2.00002V16C0 17.103 0.896953 18 2.00002 18H22C23.103 18 24 17.103 24 16V2.00002C24 0.896953 23.103 0 22 0ZM2.00002 0.999984H22C22.0737 0.999984 22.1386 1.02684 22.2078 1.04203C20.4763 2.62673 14.7348 7.87917 12.7256 9.68944C12.5684 9.83105 12.315 9.99998 12 9.99998C11.6851 9.99998 11.4317 9.83105 11.274 9.68897C9.26494 7.87898 3.52317 2.62627 1.79194 1.04213C1.86122 1.02694 1.92628 0.999984 2.00002 0.999984ZM0.999984 16V2.00002C0.999984 1.90205 1.02952 1.81317 1.05595 1.72364C2.3812 2.93658 6.38733 6.60145 8.98495 8.96362C6.39577 11.1877 2.38861 14.9868 1.05281 16.2606C1.02923 16.1756 0.999984 16.0924 0.999984 16ZM22 17H2.00002C1.92014 17 1.84913 16.9722 1.77455 16.9544C3.15488 15.6385 7.18753 11.8175 9.7312 9.64144C10.0628 9.94223 10.3657 10.2165 10.6045 10.4317C11.0166 10.8038 11.499 11 12 11C12.501 11 12.9834 10.8037 13.395 10.4321C13.6339 10.2169 13.937 9.94238 14.2688 9.64144C16.8126 11.8173 20.8447 15.638 22.2255 16.9544C22.1509 16.9722 22.08 17 22 17ZM23 16C23 16.0924 22.9708 16.1756 22.9472 16.2606C21.6109 14.9862 17.6042 11.1875 15.0151 8.96367C17.6128 6.6015 21.6183 2.93695 22.944 1.72355C22.9705 1.81308 23 1.902 23 1.99997V16Z" fill="#577A5B"/>
<path d="M2.00002 0.999984H22C22.0737 0.999984 22.1386 1.02684 22.2078 1.04203C20.4763 2.62673 14.7348 7.87917 12.7256 9.68944C12.5684 9.83105 12.315 9.99998 12 9.99998C11.6851 9.99998 11.4317 9.83105 11.274 9.68897C9.26494 7.87898 3.52317 2.62627 1.79194 1.04213C1.86122 1.02694 1.92628 0.999984 2.00002 0.999984Z" fill="#78C081"/>
<path d="M0.999984 16V2.00002C0.999984 1.90205 1.02952 1.81317 1.05595 1.72364C2.3812 2.93658 6.38733 6.60145 8.98495 8.96362C6.39577 11.1877 2.38861 14.9868 1.05281 16.2606C1.02923 16.1756 0.999984 16.0924 0.999984 16Z" fill="#78C081"/>
<path d="M22 17H2.00002C1.92014 17 1.84913 16.9722 1.77455 16.9544C3.15488 15.6385 7.18753 11.8175 9.7312 9.64144C10.0628 9.94223 10.3657 10.2165 10.6045 10.4317C11.0166 10.8038 11.499 11 12 11C12.501 11 12.9834 10.8037 13.395 10.4321C13.6339 10.2169 13.937 9.94238 14.2688 9.64144C16.8126 11.8173 20.8447 15.638 22.2255 16.9544C22.1509 16.9722 22.08 17 22 17Z" fill="#78C081"/>
<path d="M23 16C23 16.0924 22.9708 16.1756 22.9472 16.2606C21.6109 14.9862 17.6042 11.1875 15.0151 8.96367C17.6128 6.6015 21.6183 2.93695 22.944 1.72355C22.9705 1.81308 23 1.902 23 1.99997V16Z" fill="#78C081"/>
</svg>

<svg width="24" height="18" fill="none" xmlns="http://www.w3.org/2000/svg"><path d="M22 0H2C.897 0 0 .897 0 2v14c0 1.103.897 2 2 2h20c1.103 0 2-.897 2-2V2c0-1.103-.897-2-2-2zM2 1h20c.074 0 .139.027.208.042a2682.775 2682.775 0 01-9.482 8.647c-.158.142-.411.311-.726.311s-.568-.169-.726-.311c-2.01-1.81-7.75-7.063-9.482-8.647C1.862 1.027 1.926 1 2 1zM1 16V2c0-.098.03-.187.056-.276C2.381 2.937 6.387 6.6 8.985 8.964c-2.59 2.224-6.596 6.023-7.932 7.297C1.029 16.176 1 16.092 1 16zm21 1H2c-.08 0-.15-.028-.225-.046 1.38-1.316 5.413-5.136 7.956-7.313l.873.79c.413.373.895.569 1.396.569.501 0 .983-.196 1.395-.568l.874-.79c2.544 2.175 6.576 5.996 7.957 7.312-.075.018-.146.046-.226.046zm1-1c0 .092-.03.176-.053.26-1.336-1.274-5.343-5.073-7.932-7.296a4028.76 4028.76 0 007.929-7.24c.027.09.056.178.056.276v14z" fill="#577A5B"/><path d="M2 1h20c.074 0 .139.027.208.042a2682.775 2682.775 0 01-9.482 8.647c-.158.142-.411.311-.726.311s-.568-.169-.726-.311c-2.01-1.81-7.75-7.063-9.482-8.647C1.862 1.027 1.926 1 2 1zM1 16V2c0-.098.03-.187.056-.276C2.381 2.937 6.387 6.6 8.985 8.964c-2.59 2.224-6.596 6.023-7.932 7.297C1.029 16.176 1 16.092 1 16z" fill="#78C081"/><path d="M22 17H2c-.08 0-.15-.028-.225-.046 1.38-1.316 5.413-5.136 7.956-7.313l.873.79c.413.373.895.569 1.396.569.501 0 .983-.196 1.395-.568l.874-.79c2.544 2.175 6.576 5.996 7.957 7.312-.075.018-.146.046-.226.046zm1-1c0 .092-.03.176-.053.26-1.336-1.274-5.343-5.073-7.932-7.296a4028.76 4028.76 0 007.929-7.24c.027.09.056.178.056.276v14z" fill="#78C081"/></svg>
